svg/device/telescope_2_line.svg

<?xml version="1.0" encoding="UTF-8"?>
<svg width="24px" height="24px" viewBox="0 0 24 24" version="1.1" xmlns="http://www.w3.org/2000/svg" xmlns:xlink="http://www.w3.org/1999/xlink">
    <title>telescope_2_line</title>
    <g id="Icon" stroke="none" stroke-width="1" fill="none" fill-rule="evenodd">
        <g id="Device" transform="translate(-624.000000, -384.000000)">
            <g id="telescope_2_line" transform="translate(624.000000, 384.000000)">
                <path d="M24,0 L24,24 L0,24 L0,0 L24,0 Z M12.5935,23.2578 L12.5819,23.2595 L12.5109,23.295 L12.4919,23.2987 L12.4767,23.295 L12.4057,23.2595 C12.3958,23.2564 12.387,23.259 12.3821,23.2649 L12.378,23.2758 L12.3609,23.7031 L12.3659,23.7235 L12.3769,23.7357 L12.4805,23.8097 L12.4953,23.8136 L12.5071,23.8097 L12.6107,23.7357 L12.6233,23.7197 L12.6267,23.7031 L12.6096,23.2758 C12.6076,23.2657 12.601,23.2593 12.5935,23.2578 Z M12.8584,23.1453 L12.8445,23.1473 L12.6598,23.2397 L12.6499,23.2499 L12.6472,23.2611 L12.6651,23.6906 L12.6699,23.7034 L12.6784,23.7105 L12.8793,23.8032 C12.8914,23.8069 12.9022,23.803 12.9078,23.7952 L12.9118,23.7812 L12.8777,23.1665 C12.8753,23.1546 12.8674,23.147 12.8584,23.1453 Z M12.143,23.1473 C12.1332,23.1424 12.1222,23.1453 12.1156,23.1526 L12.1099,23.1665 L12.0758,23.7812 C12.0751,23.7927 12.0828,23.8019 12.0926,23.8046 L12.1083,23.8032 L12.3092,23.7105 L12.3186,23.7024 L12.3225,23.6906 L12.3404,23.2611 L12.3372,23.2485 L12.3278,23.2397 L12.143,23.1473 Z" id="MingCute" fill-rule="nonzero"></path>
                <path d="M8.5,3 C9.88071,3 11,4.11929 11,5.5 L11,7 L13,7 L13,5.5 C13,4.1745184 14.0315469,3.08996147 15.3356256,3.00531769 L15.5585,3 C16.8498,3 17.9962,3.82629 18.4045,5.05132 L21.6062,14.6563 C21.8653,15.2326 22,15.8477 22,16.5 C22,18.9853 19.9853,21 17.5,21 C15.0147,21 13,18.9853 13,16.5 L13,9 L11,9 L11,16.5 C11,18.9853 8.98528,21 6.5,21 C4.01472,21 2,18.9853 2,16.5 C2,15.8597 2.13026,15.2424 2.3938,14.6563 L5.59547,5.05132 C5.98436524,3.88462476 7.04272079,3.07959846 8.25809956,3.00557485 L8.5,3 Z M6.5,14 C5.51328,14 4.66007,14.5716 4.25348,15.4018 C4.13135,15.7682 4,16.1093 4,16.5 C4,17.8807 5.11929,19 6.5,19 C7.88071,19 9,17.8807 9,16.5 C9,15.1193 7.88071,14 6.5,14 Z M17.5,14 C16.1193,14 15,15.1193 15,16.5 C15,17.8807 16.1193,19 17.5,19 C18.8807,19 20,17.8807 20,16.5 C20,16.1093 19.8686,15.7682 19.7465,15.4018 C19.3399,14.5716 18.4867,14 17.5,14 Z M8.5,5 C8.05055,5 7.63975,5.24303 7.49284,5.68377 L5.33684,12.1518 C5.70787,12.0528 6.09777,12 6.5,12 C7.42507,12 8.28495,12.2791 9,12.7578 L9,5.5 C9,5.22386 8.77614,5 8.5,5 Z M15.5585,5 C15.2668,5 15,5.18272 15,5.5 L15,12.7578 C15.715,12.2791 16.5749,12 17.5,12 C17.9022,12 18.2921,12.0528 18.6632,12.1518 L16.5072,5.68377 C16.3711,5.27543 15.9889,5 15.5585,5 Z" id="形状" fill="#09244B"></path>
            </g>
        </g>
    </g>
</svg>

<svg xmlns="http://www.w3.org/2000/svg" width="24" height="24"><g fill="none" fill-rule="evenodd"><path d="M24 0v24H0V0h24ZM12.594 23.258l-.012.002-.071.035-.02.004-.014-.004-.071-.036c-.01-.003-.019 0-.024.006l-.004.01-.017.428.005.02.01.013.104.074.015.004.012-.004.104-.074.012-.016.004-.017-.017-.427c-.002-.01-.009-.017-.016-.018Zm.264-.113-.014.002-.184.093-.01.01-.003.011.018.43.005.012.008.008.201.092c.012.004.023 0 .029-.008l.004-.014-.034-.614c-.003-.012-.01-.02-.02-.022Zm-.715.002a.023.023 0 0 0-.027.006l-.006.014-.034.614c0 .012.007.02.017.024l.015-.002.201-.093.01-.008.003-.011.018-.43-.003-.012-.01-.01-.184-.092Z"/><path fill="#09244B" d="M8.5 3A2.5 2.5 0 0 1 11 5.5V7h2V5.5a2.5 2.5 0 0 1 2.336-2.495L15.559 3a3 3 0 0 1 2.845 2.051l3.202 9.605A4.5 4.5 0 1 1 13 16.5V9h-2v7.5a4.5 4.5 0 1 1-8.606-1.844l3.201-9.605a3 3 0 0 1 2.663-2.045L8.5 3Zm-2 11a2.5 2.5 0 0 0-2.247 1.402C4.131 15.768 4 16.109 4 16.5A2.5 2.5 0 1 0 6.5 14Zm11 0a2.5 2.5 0 1 0 2.5 2.5c0-.39-.131-.732-.253-1.098A2.5 2.5 0 0 0 17.5 14Zm-9-9c-.45 0-.86.243-1.007.684l-2.156 6.468A4.506 4.506 0 0 1 9 12.758V5.5a.5.5 0 0 0-.5-.5Zm7.059 0c-.292 0-.559.183-.559.5v7.258a4.507 4.507 0 0 1 3.663-.606l-2.156-6.468A1 1 0 0 0 15.558 5Z"/></g></svg>
